src/icons/svg/fast-forward.svg

<?xml version="1.0"?><svg xmlns="http://www.w3.org/2000/svg" width="40" height="40" viewBox="0 0 40 40"><path  d="m1 36.9q-0.4 0.4-0.7 0.2t-0.3-0.7v-32.8q0-0.6 0.3-0.7t0.7 0.2l15.9 15.9q0.1 0.2 0.2 0.4v-15.8q0-0.6 0.3-0.7t0.7 0.2l15.9 15.9q0.2 0.2 0.3 0.4v-15.1q0-0.6 0.4-1t1-0.4h2.9q0.5 0 1 0.4t0.4 1v31.4q0 0.6-0.4 1t-1 0.4h-2.9q-0.6 0-1-0.4t-0.4-1v-15.1q-0.1 0.2-0.3 0.4l-15.9 15.9q-0.4 0.4-0.7 0.2t-0.3-0.7v-15.8q-0.1 0.2-0.2 0.4z"></path></svg>

<svg xmlns="http://www.w3.org/2000/svg" width="40" height="40" viewBox="0 0 40 40"><path d="M1 36.9q-.4.4-.7.2t-.3-.7V3.6q0-.6.3-.7t.7.2L16.9 19l.2.4V3.6q0-.6.3-.7t.7.2L34 19q.2.2.3.4V4.3q0-.6.4-1t1-.4h2.9q.5 0 1 .4t.4 1v31.4q0 .6-.4 1t-1 .4h-2.9q-.6 0-1-.4t-.4-1V20.6q-.1.2-.3.4L18.1 36.9q-.4.4-.7.2t-.3-.7V20.6l-.2.4z"/></svg>
